X:1
T:Title
%%score { ( 1 3 ) | 2 }
L:1/8
M:4/4
K:Ab
V:1 treble nm="Grand Piano"
V:3 treble 
V:2 bass 
V:1
 z4 z2[Q:1/4=92] [CA]>[DB] | [Ec]>[Ec] [DB]>[DB] [CE]2 c2 | [FA]>[FB] [FA]>[DF] [CE]2 [A,C]>[B,D] | %3
 [CE]>[CE] [CA]>[EA] [DF]>[DF] [=DB]>[Dc] | B6[K:bass][K:treble] z2 | [Ec]>[Ec] B>B E2 e2 | %6
 A>G [FA]>[FB] [=Ec]2 [Fc]>[Fc] | [Fd]>[Fc] [FB]>[FA] A>G c>B |[M:3/4] [CA]6 |[M:1/4] [Ec]>[Ec] | %10
[M:4/4] [Fd]6 z2 | [Ec]6 z2 | c6 z2 | B6 z2 | e6 z2 | F2 E>E D2 [Fd]>[Fd] | c>B A>B c2 B2 | %17
[M:3/4] [CA]6 |] %18
V:2
 z4 z2 [A,,E,]>[A,,E,] | [A,,A,]>[A,,A,] [A,,E,]>[A,,E,] [A,,A,]2 [A,E]2 | %2
 [D,D]>[D,D] [D,D]>[D,A,] [A,,A,]2 [A,,E,]>[A,,E,] | %3
 [A,,A,]>[A,,A,] [A,,A,]>[C,A,] [D,A,]>[D,A,] [B,,A,]>[B,,A,] | [E,G,E]6 [C,A,]>[B,,G,] | %5
 [A,,A,]>[A,,A,] [E,G,D]>[E,G,D] [A,C]2 [G,B,E]2 | %6
 [F,CF]>[F,C=E] [D,D]>[D,F,] [C,G,]2 [F,=A,]>[F,A,] | %7
 [B,,B,]>[D,=A,] [D,B,]>[=D,_C] [E,=CE]>[E,_CE] [E,A,E]>[E,G,D] |[M:3/4] [A,,A,]6 | %9
[M:1/4] [A,,A,]>[A,,A,] |[M:4/4] [D,A,]2 D,>D, D,>[D,A,] [D,A,]>[D,A,] | %11
 [A,,A,]>A,, C,>E, z2[K:treble] [A,E]>[A,F] | %12
 [A,E]2 A,>A,[K:bass] [A,B,]>[A,B,=D] [G,B,E]>[F,A,D] | %13
 [E,G,E]>[E,G,] [F,A,]>[F,A,] G,2 [A,E]>[A,B,E] | [A,CE]2 [A,C]>[A,C] [A,C]>[A,CE] [A,CE]>[A,E] | %15
 [D,A,]>[D,A,] [D,=A,]>[C,A,] [B,,B,]2 [D,_A,]>[D,A,] | %16
 [E,A,E]>[E,G,D] [E,A,C]>[E,G,D] [E,A,E]2 [E,G,D]2 |[M:3/4] [A,,A,]6 |] %18
V:3
 x8 | x8 | x8 | x8 | z4 z z/[K:bass] D,/[K:treble] [EA]>[EB] | x8 | x8 | x8 |[M:3/4] x6 | %9
[M:1/4] x2 |[M:4/4] z2 A,>A, A,>[Fc] [FB]>[FA] | z z/ A,/ A,>A, A,2 c>d | z2 E>E =D>F B>B | %13
 z z/ E/ =D>D E2 c>d | z z/ A/ G>F E>c A>c | z z/ F/- F4 z2 | x8 |[M:3/4] x6 |] %18

